X:24
T:Country Dance
T:The Galloping Dash
F:http://www.vwml.org/record/CJS2/10/1494
S:From Tom Cave at Evercreech, Somerset 11 Sep 1907
Z:Transcribed by David Jacobs, June 2014 
M:2/4
L:1/8
K:A
e2e/d/c/B/|A2agf|edcB|A2GA|defd|ceAc|B2B>A|B2cd|
edce|a2ee|fdcB|A2Bc|defg|aefd|AGFG|A4!fine!:||
E2|Aefe|aee2|fega|bB B>c|defg|a2ga|bagf|
(3efe (3dAB|Gefe|aee2|fega|bB B>c|defg|aefd|cBAG|A2:!fine!!D.C.!|
w:
P:Always thuus in repeats, but at the begining invariably as above
cd|edce|a2ee|fdcA|A2Bc|

